X:132
%%pagewidth 8in
%%vocalfont Baskerville10Pro 13
T:Once I loved a maiden fair
M:C
L:1/8
K:F
%%score 1 2
V:1 clef-treble
V:2 clef-bass octave=-1
V:1
A3AA2A2&[CF]8|[B,EG]2[CA]2[A,F]4|G2G2[CEG]2[CEA]2&[DF]4x4|[B,EG]4[A,F]4|A3AA2A2&[DF]8|
w:Once I lov'd a maid-en fair, But she did de-ceive me; She with Ve-nus
V:2
F8|C4D4|B,4C2C2|F8|D8|
V:1
[DG]2[^CEA]2[DF]4|G2G2[=CEG]2[CEA]2&[DF]4x4|[B,EG]4[A,F]4||
w:might com-pare In my mind, be-lieve me. 
V:2
B,2A,2D,4|B,4C2C2|F8||
V:1
!<(![CFA]2[CEB]2[CFc]4!<)!|!>(![Fd]2[EGd]2[FAc]4!>)!|A3Bc2[FA]2&F6x2|
w:She was young, And among* Creatures* of temp-
V:2
F2G2A4|B2B2A4|F,3G,A,2D2|
V:1
V:1
G4[A,F]4&[DF]2[CE]B,x4|"^sf"A3AA2A2&E6F2|[DG]2[^CEA]2[DF]4|G2G2[_B,EG]2[B,EA]2&[=B,F]4x4|[B,EG]4[A,F]4||
w: ta-tion, Who will say But maid-ens may Kiss for re-cre-a-tion.
V:2
B,2C2F,4|^c6d2|B2A2D4|G,4C,4|F,2C2F4||

